svg/yurt.svg

<svg xmlns="http://www.w3.org/2000/svg" viewBox="0 0 24 24"><path d="M22 14.87V22h-8v-6h-4v6H2v-7.13c0-.54.29-1.04.76-1.3l5.9-3.37c.22-.13.48-.2.74-.2h3.1V9H14v1h.59c.26 0 .52.07.74.2l5.9 3.37c.48.27.77.76.77 1.3M7.86 6.25H9.4c1.33 0 2.52.7 3.1 1.75H14c-.4-1.8-2-3.15-3.9-3.15v-1.5c1 0 1.85-.85 1.85-1.85V1H7.86v1.5c-1 0-1.86.73-1.86 1.75s.86 2 1.86 2"/></svg>

<?xml version="1.0" encoding="UTF-8"?><!DOCTYPE svg PUBLIC "-//W3C//DTD SVG 1.1//EN" "http://www.w3.org/Graphics/SVG/1.1/DTD/svg11.dtd"><svg xmlns="http://www.w3.org/2000/svg" xmlns:xlink="http://www.w3.org/1999/xlink" version="1.1" id="mdi-yurt" width="24" height="24" viewBox="0 0 24 24"><path d="M22 14.87V22H14V16H10V22H2V14.87C2 14.33 2.29 13.83 2.76 13.57L8.66 10.2C8.88 10.07 9.14 10 9.4 10H12.5V9H14V10H14.59C14.85 10 15.11 10.07 15.33 10.2L21.23 13.57C21.71 13.84 22 14.33 22 14.87M7.86 6.25H9.4C10.73 6.25 11.92 6.95 12.5 8H14C13.6 6.2 12 4.85 10.1 4.85V3.35C11.1 3.35 11.95 2.5 11.95 1.5V1H7.86V2.5C6.86 2.5 6 3.23 6 4.25S6.86 6.25 7.86 6.25Z" /></svg>
